icons/svg/screwdriver.svg

﻿<?xml version="1.0" encoding="utf-8"?>
<!DOCTYPE svg PUBLIC "-//W3C//DTD SVG 1.1//EN" "http://www.w3.org/Graphics/SVG/1.1/DTD/svg11.dtd">
<svg xmlns="http://www.w3.org/2000/svg" xmlns:xlink="http://www.w3.org/1999/xlink" version="1.1" baseProfile="full" width="24" height="24" viewBox="0 0 24.00 24.00" enable-background="new 0 0 24.00 24.00" xml:space="preserve">
	<path fill="#000000" fill-opacity="1" stroke-width="1.33333" stroke-linejoin="miter" d="M 18,1.8262C 17.4888,1.8262 16.9777,2.0223 16.5859,2.4141C 13.724,5.276 8,11 8,11L 9.5,12.5L 6,16L 4,16L 2,20L 4,22L 8,20L 8,18L 11.5,14.5L 13,16C 13,16 18.724,10.276 21.5859,7.4141C 22.2119,6.4998 22.3694,5.3694 21.5859,4.5859L 19.4141,2.4141C 19.0223,2.0223 18.5112,1.8262 18,1.8262 Z M 18,4L 20,6L 13,13L 11,11L 18,4 Z "/>
</svg>

<svg xmlns="http://www.w3.org/2000/svg" version="1.1" baseProfile="full" width="24" height="24" viewBox="0 0 24.00 24.00" xml:space="preserve"><path fill="#000" fill-opacity="1" stroke-width="1.333" stroke-linejoin="miter" d="M18 1.826c-.51 0-1.022.196-1.414.588L8 11l1.5 1.5L6 16H4l-2 4 2 2 4-2v-2l3.5-3.5L13 16l8.586-8.586c.626-.914.783-2.045 0-2.828l-2.172-2.172c-.392-.392-.903-.588-1.414-.588zM18 4l2 2-7 7-2-2 7-7z"/></svg>
